X:1
T:Power to Save
T:Power to Save
T:William Augustine Ogden
T:William Augustine Ogden, 1890
T:Public Domain Courtesy of the Cyber Hymnal™
C:William Augustine Ogden
Z:Public Domain
Z:Courtesy of the Cyber Hymnal™
%%score ( 1 2 ) ( 3 4 )
L:1/8
Q:1/4=92
M:3/4
K:C
V:1 treble 
V:2 treble 
V:3 bass 
V:4 bass 
V:1
 [CE]>[DF] | [EG]3 [EG] [FA]>[Ac] | [FA]2 [EG]2 [Ec]>[Ec] | [FB]3 [FA] [DF]>[FA] | %4
w: 1.~There’s a|song my heart is|sing- ing, In my|soul its tones are|
w: 2.~Oh, that|song my soul is|thrill- ing, Je- sus|saves the soul that’s|
w: 3.~Sin- ner,|come if thou’lt re-|ceive Him; Look to|Je- sus and be-|
 [FA]2 [EG]2 [CE]>[DF] | [EG]3 [Ec] (3(ed)[Gc] | [Fd]2 [Ac]2 (3([Ac][GB])[FA] | %7
w: ring- ing, Peace and|rest and joy * ’tis|bring- ing, Je- * sus|
w: will- ing, Pre- cious|truth my heart * is|fill- ing, Je- * sus|
w: lieve Him; All your|life and ser- * vice|give Him, Je- * sus|
 [EG]3 [Gc] [Fc]>[FB] | [Ec]4 ||[M:9/8]"^Refrain  (Solo. Bass Obligato)" z3 | %10
w: Christ has power to|save!||
w: Christ has power to|save!||
w: Christ has power to|save!||
 [FA]2 [FA] [FA][GB][Ac] [Ac][GB][FA] | [EG]2 [CE] [EG]3 z3 | %12
w: ||
w: Sing it o- ver and o- ver a-|gain to me,|
w: ||
 [FA]2 [FA] [FA][GB][Ac] ([Ac][GB])[FA] | [EG]2 [CE] [EG]3 [EG]2 [Ec] | %14
w: ||
w: In its won- der- ful sweet * sim-|pli- ci- ty; Tell it|
w: ||
 [Ge]3- [Ge]2 [Ge] (ed)[Gc] | ([Fd]3 [Ac]3) ([Ac][GB])[FA] | [EG]3- [EG]2 [Gc] [Fc]2 [FB] | %17
w: |||
w: o’er * the o- * cean|wave, * Je- * sus|Christ * has power to|
w: |||
 [Ec]6 |] %18
w: |
w: save.|
w: |
V:2
 x2 | x6 | x6 | x6 | x6 | x4 G2 | x6 | x6 | x4 ||[M:9/8] x3 | x9 | x9 | x9 | x9 | x6 G2 x | x9 | %16
 x9 | x6 |] %18
V:3
 [C,G,]>[C,G,] | [C,C]3 [C,C] [C,C]>[C,C] | [C,C]2 [C,C]2 [C,G,]>[C,G,] | %3
w: ~ ~|~ ~ ~ ~|~ ~ ~ ~|
 [D,G,]3 [D,G,] [G,,B,]>[G,,B,] | [C,C]2 [C,C]2 [C,G,]>[C,G,] | [C,C]3 [C,C] (3([C,C][D,B,])[E,C] | %6
w: ~ ~ ~ ~|~ ~ ~ ~|~ ~ ~ * ~|
 [F,A,]2 [F,C]2 (3:2:2([F,C]2 [F,C]) | [G,D]3 [G,E] [G,D]>[G,D] | [C,C]4 ||[M:9/8] (C,D,)E, | %10
w: ~ ~ ~ *|~ ~ ~ ~|~|Sing * it|
 (C2 C CB,)[F,A,] (A,B,)[F,C] | (C2 G, C3) (C,D,)E, | (C2 C CB,)[F,A,] (A,B,)[F,C] | %13
w: o’er * * * a- gain * to|me * * In * its|sweet * * * sim- pli- * ci-|
 (C2 G, C3) z3 | [C,C]2 [C,C] [C,C]2 [C,C] ([C,C][D,B,])[E,C] | (A,3 C3) z3 | %16
w: ty; * *|Tell it o’r the o- * cean|wave, *|
 [G,C]2 [G,C] [G,C]2 [G,E] [G,D]2 [G,D] | [C,C]6 |] %18
w: Je- sus Christ has power to|save.|
V:4
 x2 | x6 | x6 | x6 | x6 | x6 | x6 | x6 | x4 ||[M:9/8] x3 | F,3- F,2 F,2 x2 | C,6 x3 | %12
 F,3- F,2 F,2 x2 | C,6 x3 | x9 | F,6 x3 | x9 | x6 |] %18

